images/global/icons/social-media/icon-tumblr.svg

<?xml version="1.0" encoding="UTF-8" standalone="no"?>
<svg width="44px" height="44px" viewBox="0 0 44 44" version="1.1" xmlns="http://www.w3.org/2000/svg" xmlns:xlink="http://www.w3.org/1999/xlink">
    <!-- Generator: Sketch 3.8.3 (29802) - http://www.bohemiancoding.com/sketch -->
    <title>tumblr</title>
    <desc>Created with Sketch.</desc>
    <defs>
        <circle id="path-1" cx="22" cy="22" r="22"></circle>
        <mask id="mask-2" maskContentUnits="userSpaceOnUse" maskUnits="objectBoundingBox" x="0" y="0" width="44" height="44" fill="white">
            <use xlink:href="#path-1"></use>
        </mask>
    </defs>
    <g id="Social-Icons" stroke="none" stroke-width="1" fill="none" fill-rule="evenodd">
        <g transform="translate(-360.000000, -120.000000)" id="tumblr">
            <g transform="translate(360.000000, 120.000000)">
                <rect id="Rectangle" x="0" y="0" width="44" height="44"></rect>
                <use id="Oval" stroke="#091F2F" mask="url(#mask-2)" stroke-width="4" xlink:href="#path-1"></use>
                <path d="M22.4823636,11 L22.4823636,16.2531111 L27.6178182,16.2531111 L27.6178182,19.5164444 L22.4823636,19.5164444 L22.4823636,24.8465556 C22.4823636,26.0528889 22.5485455,26.8265556 22.6809091,27.1663333 C22.8132727,27.511 23.0601818,27.7835556 23.4241818,27.9876667 C23.9014545,28.2638889 24.4487273,28.4007778 25.066,28.4007778 C26.1618182,28.4007778 27.2512727,28.0573333 28.3356364,27.3741111 L28.3356364,30.6545556 C27.4103636,31.0701111 26.5741818,31.3646667 25.8245455,31.5333333 C25.0736364,31.7032222 24.2629091,31.7863333 23.3923636,31.7863333 C22.4009091,31.7863333 21.5265455,31.6665556 20.7667273,31.427 C20.0069091,31.185 19.3578182,30.8452222 18.822,30.4003333 C18.2849091,29.9566667 17.9107273,29.4824444 17.7045455,28.9825556 C17.4970909,28.4826667 17.394,27.7578889 17.394,26.807 L17.394,19.5164444 L15,19.5164444 L15,16.5745556 C15.8527273,16.3093333 16.5794545,15.928 17.1865455,15.4342222 C17.7910909,14.9392222 18.2798182,14.344 18.6450909,13.6485556 C19.0116364,12.9555556 19.2649091,12.0718889 19.4036364,11 L22.4823636,11" id="Shape" fill="#091F2F"></path>
            </g>
        </g>
    </g>
</svg>

<svg width="44" height="44" viewBox="0 0 44 44" xmlns="http://www.w3.org/2000/svg" xmlns:xlink="http://www.w3.org/1999/xlink"><title>tumblr</title><defs><circle id="a" cx="22" cy="22" r="22"/><mask id="b" x="0" y="0" width="44" height="44" fill="#fff"><use xlink:href="#a"/></mask></defs><g fill="none" fill-rule="evenodd"><path d="M0 0h44v44H0z"/><use stroke="#091F2F" mask="url(#b)" stroke-width="4" xlink:href="#a"/><path d="M22.482 11v5.253h5.136v3.263h-5.136v5.33c0 1.207.067 1.98.2 2.32.13.345.378.618.742.822.477.276 1.025.413 1.642.413 1.096 0 2.185-.343 3.27-1.026v3.28c-.926.416-1.762.71-2.51.88-.752.17-1.563.252-2.434.252-.99 0-1.865-.12-2.625-.36s-1.41-.58-1.945-1.026c-.537-.443-.91-.918-1.117-1.417-.208-.5-.31-1.225-.31-2.176v-7.29H15v-2.942c.853-.266 1.58-.647 2.187-1.14.604-.496 1.093-1.09 1.458-1.786.367-.694.62-1.578.76-2.65h3.077" fill="#091F2F"/></g></svg>
